X:1
T:Coronado, 76.76 D
T:Coronado, 76.76 D
T:Franklin Edson Belden, 1896
T:Public Domain Courtesy of the Cyber Hymnal™
C:Franklin Edson Belden, 1896
Z:Public Domain
Z:Courtesy of the Cyber Hymnal™
%%score ( 1 2 ) ( 3 4 )
L:1/8
Q:1/4=100
M:6/8
K:D
V:1 treble 
V:2 treble 
V:3 bass 
V:4 bass 
V:1
 [DF] | [DF]2 [EG] [FA]2 [Fd] | [Gd]3 [Gc]2 [GB] | ([FA][GB])[FA] ([EG][FA])[EG] | %4
 [DF]3- [DF]2 [DF] | [DF]2 [EG] [FA]2 [Fd] | [Ge]2 [Fd] [Ec]2 [EB] | (A^G)[EA] [Ac]2 [GB] | %8
 A3- A2 z | B3 BFA | G2 F G2 E | [CA]3 (AE)[EG] | [DF]2 [EG] [FA]3 | [GB]3 ([Bd][Ac])[GB] | %14
 [FA]2 [FA] [GB][FA][EG] | [DF]2 [DF] [CF]2 [CE] | D3- D2 |] %17
V:2
 x | x6 | x6 | x6 | x6 | x6 | x6 | E2 x4 | A3- A2 x | B3 (BF)A | G2 F G2 E | x3 C2 x | x6 | x6 | %14
 x6 | x6 | D3- D2 |] %17
V:3
 [D,A,] | [D,A,]2 [D,A,] [D,D]2 [D,A,] | [E,A,]3 [E,A,]2 [A,C] | [A,D]2 [A,D] [A,,A,]2 [C,A,] | %4
 [D,A,]3- [D,A,]2 [D,A,] | [D,A,]2 [D,A,] [D,D]2 [D,A,] | A,3 [E,A,]2 [E,D] | %7
 (CB,)[E,C] [E,E]2 [E,D] | [A,C]3- [A,C]2 z | B,3 B,F,A, | G,2 F, G,2 E, | %11
 [A,,A,]3 [A,,A,]2 [A,,A,] | [D,A,]2 [D,A,] [D,D]3 | [G,D]3 [G,D]2 [G,D] | %14
 [D,D]2 [D,D] [D,D][D,D][G,,B,] | [A,,A,]2 [A,,A,] [A,,A,]2 [A,,G,] | [D,F,]3- [D,F,]2 |] %17
V:4
 x | x6 | x6 | x6 | x6 | x6 | C,2 D, x3 | E,2 x4 | x6 | B,3 (B,F,)A, | G,2 F, G,2 E, | x6 | x6 | %13
 x6 | x6 | x6 | x5 |] %17

